X:187
T:Untitled. HA.186
M:C
L:1/8
Q:1/4=180
S:Henry Atkinson’s original MS,Hartburn,N’umberland,1694.
O:England
A:Hartburn,Northumberland
H:1/8
Z:vmp.Neil Brookes, Jan.2004
K:D
“_as writ”
(Bd)|”^cr”A3F “^cr”D3F|E2e4dB|”^cr”A3F”^cr”D3F|A2d4:|
|:de|fedB dBAF|E2e4de|fedB dBAF|D2d4de|
fedB dBAF|AFED EFGB|A3F “^cr”D3E|A2d4|]
W:cr=crotchet in MS|

